X: 1
T: Na Khelav, na Gilavav    [Gm]
T: (Indinski \vCo\vcek)
O: Makedonski Rom
R: \vCo\vcek
Z: 2011 John Chambers <jc:trillian.mit.edu>
S: printed MS of unknown origin
M: 4/4
L: 1/16
P: ABC-ABC-taksim-ABC
K: Gm
%%continueall 1
P: Intro.
[| "Gm"z2 [d4B4] [c2A2] [cA][dB][dB][cA] [B4G4] |\
	"F"z2 [c4A4] [B2G2] [BG][cA][cA][BG] [A4F4] |\
	"Eb"z2 [B4G4] [A2F2] [AF][BG][BG][AF] [G2E2][AF][GE] |\
	"D"[^F2D2][G2E2] [A2^F2][B2G2] [1 [AF][BG][AF][BG] [AF][BG][c2A2] :|\
[2 [A^F][BG][AF][GE] [^F4-D4-] | [^F16-D16-] |]
P:
[V:1]\
[| "D"[^F16-D16-] |\
	[F2D2] [^F4D4] [G2E2] [A8-^F8-] |\
	[A4^F4] [A2F2][A2F2] [A2F2][A2F2] [A4-F4-] |
[V:1]\
	[A2^F2] [A4F4] [B2G2] [c8A8] |\
|: "Gm"z2 [d4B4] [d2B2] [d2B2][c2A2] [B4G4] |\
	"F"z2[c2A2] [c2A2][c2A2] [c2A2][B2G2] [A4^F4] |
[V:1]\
	"Eb"z2 [B4G4] [B2G2] [B2G2][A2^F2] [G4E4] |\
	"D"[A2^F2] [B4G4] [A2F2] [G4E4] [^F4-D4-] :|\
	[^F2D2]D2 [F2D2][G2E2] [A^F][BG][AF][GE] [^F4D4]
[V:2][| z2 D4 D2 D2D2- D4- | D2D2- D2E2 ^F8 | z4 ^F2F2 F2F2- F4- |
w: Na khe-lav,___ na gi-la-vav, Me sud-bi-na_
w: O te-ki-je__ me_ pir-d\vzum Man-ge le-ko_
w: Du-\vsa me da__ ka_tsi-dav, A-ma-ne ti_
%
[V:2] F2^F2- F2G2 A8 |: z2 B4 B2 (B2A2 G4-) | G2A2 A2A2 (A2G2 ^F4) |
w: _me za li-nav, So ker-d\vzum___ e Dev-les-ke__
w: _na_ rak-ljum, Na-sva-li-*pe ba-ro i-si man__
w: _a-*\vca-vav,  Sa o Ro-*ma_ ne ka pi-jen__
%
[V:2] z2 G4 G2 (G2^F2 E4) | ^F2 (G4 F2) E4 D4- :| D16
w: Man ter-ne__ te-le ke pes-ke.
w: Le-star ter-*no me_ ka me-rav.
w: Pa-le man-*de ge na_ ro-ven.
[V:1]\
[| "D"[^F2D2]z2 z4 z8 |\
	"Eb"[B4G4] [B3G3][A^F] [GE][AF][GE][^FD] [G4E4] |\
	z4 [B4G4] [B4G4] [B4G4] |
	"D"[A^F][BG][BG][AF] [GE][AF][AF][GE] [^FD][GE][FD][EC] [F4-D4-] |\
	[^F4D4] [F2D2][G2E2] [A2^F2][B2-G2-] [B4G4] |\
	"Eb"[B4G4] [B3G3][A^F] [GE][AF][GE][^FD] [G4E4] |
	z4 [B4G4] [B4G4] [B4G4] |\
	"D"[A^F][BG][BG][AF] [GE][AF][AF][GE] [^FD][GE][FD][EC] [F4-D4-] |\
	[^F16D16] |]
[V:2]"Rdergin"[| z2 D4 E2 ^F2G2- G4 | (^F2 E4) D2 E8 | z4 D2E2 ^F2G2- G4 |
w: A-bre de-vla_ so_ ke-re, Me sem ter-no_
[V:2] ^F2E2 E2D2 ~D8 | z4 D2E2 ^F2G2- G4 | (^F2 E4) D2 E8 |
w: man ma tu te-le. A-bre de-vla_ so_ ke-re,
[V:2] z4 D2E2 ^F2G2- G4 | ^F2E2 E2D2 ~D8- | D16 |]
w: Me sem ter-no_ man ma tu te-le.


